X: 0
T:Ljugaren
F: https://www.youtube.com/watch?v=-cvg5yiUht8
M:4/4
K:Am fgp=1
Q: "BPM=110"
|:E2 A3B A2 | ^G2 E4 E2 | z2 c4 B2 | c2 d6 | c2 B3c B2 | A2 ^G2 A2 B2 | ^G2 A6 | z8 :|
|: B2 c4 B2 | c2 d4 c2 | d2 e6 | z2 A6 |
B2 c4 B2 | c2 d4 c2 | z2 B3c B2 | A2 B4 ^G2 |
E2 A3B A2 | ^G2 E4 E2 | z2 c4 B2 | c2 d6 | c2 B3c B2 | A2 ^G2 A2 B2 | ^G2 A6 | z8 :|
